X: 1
T: Dinkey's
R: reel
M: 4/4
L: 1/8
K: Amix
|:ed|c2B2 ABcd|egfg edBd|gBBB gBaB|gBBB gfed|cdBc ABcd|egfg edBd|gfgd efed|c2B2 A2:||:eg|aAAA aAbA|aAAA agef|gBBB gBaB|gBBB gfeg|aAAA aAbA|aAAA agef|gfgd efed|cdBc A2:|


Tune 24	Setting 28529

